X:1
T:Created 31.7.2004 by Björn Sothmann BjoernSothmann@aol.com
%%score 1 2 3 4
L:1/8
Q:1/4=120
M:3/1
K:C
V:1 treble nm="MusicXML Part"
V:2 treble-8 nm="MusicXML Part"
V:3 bass nm="MusicXML Part"
V:4 bass nm="MusicXML Part"
V:1
"^19. Perchè te 'n fuggi, o Fillide?\nA 3, Alto Tenore e Basso\nfrom Madrigal Book VIII""^Claudio Monteverdi\n1567-1643" z24 | %1
w: |
 z24 | z24 | z24 | z8 z8 E8 | A8 A8 A8 | G8 A16 | F12 F4 F8 | E8 F16 | D12 D4 D8 | E8 E8 E8 | %11
w: |||Per-|chè t'en fug-|gi o|Fil- li- de|o *|Fil- li- de|per- chè t'en|
 E8 D8 z8 | C8 C8 C8 | C8 B,8 z8 | z24 | z24 | F8 F8 F8 | C8 D8 E8 | D8 E8 F8 | D8 E8 z8 | %20
w: fug- gi|per- chè t'en|fug- gi|||per- chè t'en|fug- gi t'en|fug- gi t'en|fug- gi|
[M:4/4] z8 |[M:4/4] z8 | z8 | z8 | z E E>D D>C C>B, | B,2 D4 CB, | C3 C C4 | z8 | z A A>G G>F F>F | %29
w: ||||A- scol- ta- mi a- scol- ta-|mi Deh Fil- li a-|scol- ta- mi||a- scol- ta- mi a- scol- ta-|
 F2 E4 DC | D>D D2 z D DD | C>B, C4 B,2 | B,4 z2 E2 |[M:3/1] F8 D4 G8 E4 | A8 F4 D8 G4 | %35
w: mi Deh Fil- li a-|scol- ta- mi e quei bel-|l'oc- chi vol- ta-|mi già|bel- va- non son|io nè ser- pe|
 C6 C2 D8 B,8 | C8 A,4 D8 B,4 | E8 C4 A,8 D4 | B,6 B,2 C8 z8 |[M:4/4] z2 D2 B,4 | B,2 C4 B,2 | %41
w: squal- li- do già|bel- va non son|io nè ser- pe|squal- li- do|nè ser-|pe squal- li-|
[M:4/4] C8 | z E E4 D2 | E2 z E C>B, C2- | C2 C2 z4 | z8 | z8 | z4 z2 D2 | B,>A, B,4 B,2 | %49
w: do|A- min- ta io|son se ben son ma-|* gro|||se|ben son ma- gro e|
 B,6 B,2 | A,8 | z8 | z8 | z8 | z8 | z8 | z8 | z8 | z8 | A4 AA A>G | A>A A2 z A AA | A>A A3 A A^G | %62
w: pal- li-|do|||||||||Que- ste mie cal- de|la- gri- me che da que-|st'oc- chi o- gn'hor si veg- gon|
 A>A A2 z4 | F2 D3 D D^C | D>D D2 z D DD | D3 D C4 | z E EE E4- | ED D2 z4 | E2 E4 D2 | E3 E E4 | %70
w: pio- ve- re|han for- za di com-|mo- ve- re o- gni più|du- ro cor|o- gni più du-|* ro cor|spie- ta- to e|ri- gi- do|
 z8 | z8 | z8 | z2 E2 G2 ^D2 | E4 z E E^F | G2 G2 ^F3 F | E4 z4 | z4 z2 D2 | ^F2 ^C2 D4 | %79
w: |||ma'l tuo non|già ch'è più d'un|giac- cio fri- gi-|do|ma'l|tuo non già|
 z C CD E4 | D2 E4 ^D2 | E8 | z8 | z8 | z8 | z8 | z8 | z8 |[M:3/1] A8 G8 F8 | G8 F8 E8 | F8 E8 D8 | %91
w: ch'è più d'un giac-|cio fri- gi-|do|||||||Fil- li più|rat- ta più|rat- * ta|
 E8 D8 C8 | D8 C8 B,8 | C8 B,8 A,8 | z24 | z24 |[M:4/4] D4 DD DD | D3 C D2 D2 | z8 | %99
w: fug- ge- si|fug- ge- si|fug- ge- si|||men- tre spar- gen- do in-|dar- no a l'au- ra||
[M:4/4] G4 GG GG | G3 ^F GG G2- | G2 GG G4 | ^F8 | z8 | z8 | E2 A3 E E>D | D3 D D4 |[M:3/1] z24 | %108
w: men- tre spar- gen- do in-|dar- no a l'au- ra pian-|* ti e la- men-|ti|||in- dar- no il cor di-|strug- ge- si||
 z24 | z24 | z24 | G8 F8 E8 | F8 E8 D8 | E8 D8 C8 | D8 C8 B,8 |[M:4/4] G6 A2 | F6 FG |[M:4/4] E8 | %118
w: |||Fil- li più|rat- ta più|rat- * ta|fug- ge- si|ne i so-|spir che dal|cor|
 D6 E2 | C6 CD | B,4 z4 | z8 | z4 z2 E2 | C4 C2 z D | B,4 B,4 |[M:3/1] z24 | z24 | z24 | z24 | %129
w: ne i so-|spir che dal|cor||non|vo- ci o|prie- ghi|||||
 z24 | z24 | z24 |[M:4/4] z8 | z4 z2 E2 |[M:4/4] C2 CA F3 G | E4 E4 |[M:3/1] z24 | z24 | D8 E8 F8 | %139
w: ||||non|vo- ci non vo- ci o|prie- ghi|||i piè fu-|
 E8 F8 G8 | F8 G8 A8 | A12 ^G4 A8 |] %142
w: ga- ci fu-|ga- * ci ar-|re- sta- no.|
V:2
 z8 z8 A8 | e8 e8 e8 | d8 e16 | c12 c4 c8 | B8 c16 | A12 A4 A8 | z8 z8 A8 | d8 d8 d8 | c8 d16 | %9
w: Per-|chè t'en fug-|gi o|Fil- li- de|o *|Fil- li- de|per-|chè t'en fug-|gi o|
 B12 B4 B8 | c8 c8 c8 | A8 G8 z8 | A8 A8 A8 | A8 G8 z8 | z24 | c8 c8 c8 | F8 G8 A8 | G8 A8 B8 | %18
w: Fil- li- de|per- chè t'en|fug- gi|per- chè t'en|fug- gi||per- chè t'en|fug- gi t'en|fug- gi t'en|
 A8 B8 c8 | B8 c8 z8 |[M:4/4] z4 z2 d2- |[M:4/4] d2 cB B>B B2 | z B BB A3 ^G | A3 A A4 | z8 | z8 | %26
w: fug- gi t'en|fug- gi|Deh|* Fil- li a- scol- ta- mi|e quei bel- li oc- chi|vol- ta- mi|||
 z8 | z8 | z f f>e e>d d>d | d2 c4 BA | A>A A2 z A AA | A>^G A4 G2 | ^G4 z4 |[M:3/1] z24 | %34
w: ||a- scol- ta- mi a- scol- ta-|mi Deh Fil- li a-|scol- ta- mi e quei bel-|l'oc- chi vol- ta-|mi||
 z8 z8 B8 | c8 A4 d8 B4 | c8 z8 z8 | z8 z8 ^F8 | G8 E4 A8 ^F4 |[M:4/4] B4 z2 G2 | E2 E2 D3 D | %41
w: già|bel- va non son|io|già|bel- va non son|io nè|ser- pe squal- li-|
[M:4/4] C8 | z8 | z8 | z A A4 ^G2 | A4 z2 A2 | ^F>E F4 F2 | z4 z2 B2 | ^G>^F G4 A2 | A6 ^G2 | A8 | %51
w: do|||A- min- ta io|son se|ben son ma- gro|se|ben son ma- gro e|pal- li-|do|
 e4 ee e>d | e>e e2 z e ee | e>e e3 e e>d | e>e e2 z4 | e2 c3 c cB | c>c c2 z c cc | c3 c B4 | %58
w: Quel- le mie cal- de|la- gri- me che da que-|st'oc- chi o- gn'hor si veg- gon|pio- ve- re|han for- za di com-|mo- ve- re o- gni più|du- ro cor|
 z4 z e ee | e6 d2 | d4 z e e2- | e2 d2 e>e e2 | z8 | d2 B3 B BA | B>B B2 z B BB | B3 B A4 | %66
w: o- gni più|du- ro|cor qpie- ta-|* to e ri- gi- do||han for- za di com-|mo- ve- re o- gni più|du- ro cor|
 z c cc c4- | cB A2 z4 | A2 A4 A2 | B3 B B2 z E | G2 ^D2 EE E^F | G3 G ^F3 F | E4 z4 | z4 z2 B2 | %74
w: o- gni più du-|* ro cor|spie- ta- to e|ri- gi- do ma'l|tuo non già ch'è più d'un|giac- cio fri- gi-|do|ma'l|
 c2 ^G2 A4 | z B Bc d2 d2 | c3 c B4 | z4 z2 B2 | d2 ^A2 B^F FG | A2 A2 z E EF | G2 G2 ^F3 F | E8 | %82
w: tuo non già|ch'è più d'un giac- cio|fri- gi- do|ma'l|tuo non già ch'è più d'un|giac- cio ch'è più d'un|giac- cio fri- gi-|do|
 z8 | z8 | z8 | z8 | B2 e3 B B>A | A3 A A4 |[M:3/1] z24 | z24 | d8 c8 B8 | c8 B8 A8 | B8 A8 G8 | %93
w: ||||In- dar- no il cor di-|strug- ge- si|||Fil- li più|rat- ta più|rat- * ta|
 A8 G8 F8 | G8 F8 E8 | F8 E8 D8 |[M:4/4] z8 | B4 BB BB | B3 A B2 B2 |[M:4/4] e4 ee ee | %100
w: fug- ge- si|fug- ge- si|fug- ge- si||men- tre spar- gen- do in-|dar- no a l'au- ra|men- tre spar- gen- do in-|
 e3 d ee e2- | e2 e>e e4 | ^d8 | z8 | B2 e3 B B>A | A3 A A4 | z8 |[M:3/1] d8 c8 B8 | c8 B8 A8 | %109
w: dar- no a l'au- ra pian-|* ti e la- men-|ti||in- dar- no il cor di-|strug- ge- si||Fil- li più|rat- ta più|
 B8 A8 G8 | A8 G8 F8 | G8 G8 G8 | F8 F8 F8 | E8 E8 E8 | z24 |[M:4/4] z4 e4- | e2 f2 d4- | %117
w: rat- * ta|fug- ge- si|fug- ge- si|fug- ge- si|fug- ge- si||ne i|* so- spir|
[M:4/4] d2 de ^c4 | z4 B4- | B2 c2 A4- | A2 AB ^G4 | z2 A2 ^F2 F2 | z2 G2 E2 E2 | z4 z2 F2 | D8 | %125
w: * che dal cor|ne i|* so- spir|* che dal cor|non vo- ci|non vo- ci|o|prie-|
[M:3/1] C16 z8 | z24 | E8 F8 G8 | F8 G8 A8 | G8 A8 B8 | A8 B8 c8 | B6 B2 A8 e8 | %132
w: ghi||i piè fu-|ga- ci fu-|ga- ci fu-|ga- * ci ar-|re- sta- no non|
[M:4/4] ^c2 c2 z2 d2 | B2 B2 z2 c2 |[M:4/4] A2 A2 z2 _B2 | G8 |[M:3/1] F16 z8 | G8 A8 B8 | %138
w: vo- ci o|prie- ghi non|vo- ci o|prie-|ghi|i pie fu-|
 A8 B8 c8 | B8 c8 d8 | c8 d8 e8 | d12 d4 e8 |] %142
w: ga- ci fu-|ga- ci fu-|ga- * ci ar-|re- sta- no.|
V:3
 z24 | z24 | z8 z8 E,8 | A,8 A,8 A,8 | G,8 A,16 | F,12 F,4 F,8 | E,8 F,16 | D,12 D,4 D,8 | %8
w: ||Per-|chè t'en fug-|gi o|Fil- li- de|o *|Fil- li- de|
 A,8 F,16 | G,12 G,4 G,8 | C8 C8 C8 | C8 G,8 z8 | A,8 A,8 A,8 | A,8 E,8 z8 | F,8 F,8 F,8 | %15
w: o *|Fil- li- de|per- chè t'en|fug- gi|per- chè t'en|fug- gi|per- chè t'en|
 C,8 D,8 E,8 | D,8 E,8 F,8 | E,8 F,8 G,8 | F,8 G,8 A,8 | G,8 C,8 z8 |[M:4/4] z2 C2 ^G,4 | %21
w: fug- gi t'en|fug- gi t'en|fug- gi t'en|fug- gi t'en|fug- gi|Ohi- mè|
[M:4/4] z8 | z8 | z4 z2 C2 | ^G,4 z4 | z2 B,4 A,^G, | A,3 A, A,4 | z G, G,G, F,3 E, | F,8- | F,8 | %30
w: ||Ohi-|mè|Deh Fil- li a-|scol- ta- mi|e quei bel- li oc- chi|vol-||
 F,8 | E,8- | E,4 z4 |[M:3/1] z8 z8 E,8 | F,8 D,4 G,8 E,4 | A,8 F,4 D,8 G,4 | C,6 C,2 D,8 B,,8 | %37
w: ta-|mi||già|bel- va- non son|io nè ser- pe|squal- li- do già|
 C,8 A,,4 D,8 B,,4 | E,8 C,4 A,,8 D,4 |[M:4/4] G,,8- | G,,4 G,,4 |[M:4/4] C,8 | z8 | z8 | %44
w: bel- va non son|io nè ser- pe|squal-|* li-|do|||
 z4 z2 E,2 | ^C,>B,, C,4 C,2 | z4 z2 D,2 | B,,>A,, B,,4 B,,2 | E,,8- | E,,4 E,,4 | A,,8 | z8 | z8 | %53
w: se|ben son ma- gro|se|ben son ma- gro e|pal-|* li-|do|||
 z8 | z8 | A,4 A,A, A,>^G, | A,>A, A,2 z A, A,A, | A,>A, A,3 A, A,^G, | A,>A, A,2 z4 | %59
w: ||Que- ste mie cal- de|la- gri- me che da que-|st'oc- chi o- gn'hor si veg- gon|pio- ve- re|
 A,2 F,3 F, F,E, | F,>F, F,2 z F, F,F, | F,3 E, E,4 | z A, A,A, A,4- | A,2 ^G,2 G,4 | %64
w: han for- za di com-|mo- ve- re o- gni più|du- ro cor|o- gni più du-|* ro cor|
 z A, A,4 ^G,2 | A,3 A, A,4 | z A, A,A, F,4- | F,F, F,2 z4 | F,2 F,4 F,2 | E,3 E, E,4 | z8 | %71
w: spie- ta- to e|ri- gi- do|o- gni più du-|* ro cor|spie- ta- to e|ri- gi- do||
 z4 z2 B,,2 | C,2 ^G,,2 A,,A,, A,,B,, | C,3 C, B,,3 B,, | E,4 z4 | z8 | z2 E,2 G,2 ^D,2 | %77
w: ma'l|tuo non già ch'è più d'un|giac- cio fri- gi-|do||Ma'l tuo non|
 E,E, E,^F, G,2 G,2 | ^F,3 F, B,,4 | z A,, A,,B,, C,2 C,2 | B,,6 B,,2 | E,8 | C,4 C,C, C,C, | %83
w: già ch'è piè d'un giac- cio|fri- gi- do|ch'è più d'un giac- cio|fri- gi-|do|Men- tre spar- gen- do in-|
 C,3 B,, C,2 C,2 | F,,8- | F,,2 F,,F,, F,,4 | E,,4 z4 | z8 |[M:3/1] z24 | z24 | z24 | z24 | z24 | %93
w: dar- no a l'au- ra|pian-|* ti e la- men-|ti|||||||
 z24 | z24 | z24 |[M:4/4] z8 | G,4 G,G, G,G, | G,3 ^F, G,2 G,2 |[M:4/4] C,8- | C,2 C,C, C,4 | %101
w: ||||men- tre spar- gen- do in-|dar- no a l'au- ra|pian-|* ti e la- men-|
 B,,8- | B,,8 | ^F,2 B,3 F, F,>E, | E,3 E, E,4 | z8 | z8 |[M:3/1] z24 | z24 | G,8 F,8 E,8 | %110
w: ti||in- dar- no il cor di-|strug- ge- si|||||Fil- li più|
 F,8 E,8 D,8 | E,8 D,8 C,8 | D,8 C,8 B,,8 | C,8 B,,8 A,,8 | B,,8 A,,8 G,,8 |[M:4/4] z8 | z8 | %117
w: rat- ta più|rat- * ta|fug- ge- si|fug- ge- si|fug- ge- si|||
[M:4/4] z4 A,>A, G,2 | ^F,>F, F,2 z4 | z8 | z4 E,>E, D,2 | ^C,>C, C,2 z2 D,2 | B,,2 B,,2 z2 C,2 | %123
w: si do- len-|ti e- sco- no||si do- len-|ti e- sco- no non|vo- ci o|
 A,,8- | A,,4 ^G,,4 |[M:3/1] A,,8 B,,8 C,8 | B,,8 C,8 D,8 | C,8 D,8 E,8 | D,8 E,8 F,8 | %129
w: prie-|* ghi|i piè fu-|ga- ci fu-|ga- ci fu-|ga- ci fu-|
 E,8 F,8 G,8 | F,8 G,8 A,8 | A,6 ^G,2 A,8 z8 |[M:4/4] z2 A,2 ^F,2 F,2 | z2 G,2 E,2 E,2 | %134
w: ga- ci fu-|ga- * ci ar-|re- sta- no|non vo- ci|non vo- ci|
[M:4/4] z2 F,2 D,4- | D,4 ^C,4 |[M:3/1] D,8 E,8 F,8 | E,8 F,8 G,8 | F,8 G,8 A,8 | G,8 A,8 B,8 | %140
w: o prie-|* ghi|i piè fu-|ga- ci fu-|ga- ci fu-|ga- ci fu-|
 A,8 B,8 C8 | B,12 B,4 A,8 |] %142
w: ga- * ci ar-|re- sta- no.|
V:4
 z8 z8 A,8 | E8 E8 E8 | D8 E8 E,8 | A,8 A,8 A,8 | G,8 A,16 | F,12 F,4 F,8 | E,8 F,16 | %7
 D,12 D,4 D,8 | A,8 F,16 | G,12 G,4 G,8 | C8 C8 C8 | C8 G,8 z8 | A,8 A,8 A,8 | A,8 E,8 z8 | %14
 F,8 F,8 F,8 | C,8 D,8 E,8 | D,8 E,8 F,8 | E,8 F,8 G,8 | F,8 G,8 A,8 | G,8 C,8 z8 | %20
[M:4/4] z2 C2 ^G,4 |[M:4/4] ^G,8- | G,8 | A,4 A,4 | ^G,8- | G,8 | A,8 | G,8 | F,8- | F,8 | F,8 | %31
 E,8 | E,4 z2 E2 |[M:3/1] F8 D4 G4 E,8 | F,8 D,4 G,8 E,4 | A,8 F,4 D,8 G,4 | C,6 C,2 D,8 B,,8 | %37
 C,8 A,,4 D,8 B,,4 | E,8 C,4 A,,8 D,4 |[M:4/4] G,,8- | G,,4 G,,4 |[M:4/4] C,8 | C,4 F,4 | %43
 E,4 A,4- | A,4 E,2 E,2 | ^C,4 C,4 | D,8 | B,,8 | E,,8- | E,,4 E,,4 | A,,8 | E8 | E4 z E EE | E8 | %54
 E4 z4 | A,6 A,>^G, | A,4 z A, A,A, | A,2 A,4 A,>^G, | A,4 A,4 | A,2 F,4 F,F, | F,4 z F, F,F, | %61
 F,4 E,4 | A,,A, A,A, A,4- | A,2 ^G,2 G,4 | A,2 A,4 ^G,2 | A,4 A,4 | A,4 F,4- | F,2 F,2 z4 | %68
 F,2 F,4 F,2 | E,4 E,2 E,2- | E,2 ^D,2 E,4 | B,,6 B,,2 | C,2 ^G,,2 A,,2 B,,2 | C,2 C,2 B,,4 | %74
 E,4 A,4 | z B, B,C D2 D2 | C2 E,2 G,2 ^D,2 | E,3 ^F, G,2 G,2 | ^F,4 B,,4 | A,,2 A,,B,, C,2 C,2 | %80
 B,,8 | E,8 | C,6 C,2 | C,3 B,, C,2 C,2 | F,,8 | F,,2 F,,2 F,,4 | E,,4 E,4 | ^C,8 |[M:3/1] ^C,24 | %89
 ^C,24 | D8 C8 B,8 | C8 B,8 A,8 | B,8 A,8 G,8 | A,8 G,8 F,8 | G,8 F,8 E,8 | F,8 E,8 D,8 | %96
[M:4/4] D6 DD | G,6 G,G, | G,3 ^F, G,2 G,2 |[M:4/4] C,8- | C,4 C,2 C,2 | B,,8- | B,,8 | B,,8 | %104
 ^G,,8 | A,8 | ^F,8 |[M:3/1] D8 C8 B,8 | C8 B,8 A,8 | G,8 F,8 E,8 | F,8 E,8 D,8 | E,8 D,8 C,8 | %112
 D,8 C,8 B,,8 | C,8 B,,8 A,,8 | B,,8 A,,8 G,,8 |[M:4/4] C8 | A,4 _B,4 |[M:4/4] G,4 A,4 | ^F,4 G,4 | %119
 E,4 F,4 | D,4 E,4 | ^C,4 D,4 | B,,4 C,4 | A,,8- | A,,4 ^G,,4 |[M:3/1] A,,8 B,,8 C,8 | %126
 B,,8 C,8 D,8 | C,8 D,8 E,8 | D,8 E,8 F,8 | E,8 F,8 G,8 | F,8 G,8 A,8 | A,6 ^G,2 A,8 A,8 | %132
[M:4/4] A,4 ^F,4 | G,4 E,4 |[M:4/4] F,4 D,4- | D,4 ^C,4 |[M:3/1] D,8 E,8 F,8 | E,8 F,8 G,8 | %138
 F,8 G,8 A,8 | G,8 A,8 B,8 | A,8 B,8 C8 | B,12 B,4 A,8 |] %142

